!!!OTL: O WIE IST ES KALT GEWORDEN
!!!ARE: Europa, Mitteleuropa, Deutschland
!!!SCT: B0222
!!!YEM: Copyright 1995, estate of Helmut Schaffrath.
**kern
*ICvox
*Ivox
*M3/4
*k[b-e-a-]
*E-:
{8e-
8f
=1
4g
4g
8g
8a-
=2
4g
4f}
{8f
8g
=3
4.a-
8e-
8b-
8a-
=4
2g}
{8b-
8a-
=5
4f
4f
8g
8a-
=6
4cc
4b-}
{8ee-
8cc
=7
4b-
4g
8b-
8a-
=8
2g}
==
!!!AGN: Jahreszeiten - Lied, Winter
!!!ONB: ESAC (Essen Associative Code) Database: BOEHME
!!!AMT: simple triple
!!!AIN: vox
!!!EED: Helmut Schaffrath
!!!EEV: 1.0
*-
